framework/glyphicons/like.svg

<svg id="ds44-icons" xmlns="http://www.w3.org/2000/svg" width="466.4155" height="480" viewBox="0 0 466.4155 480"><title>like</title><g id="like"><g id="Tracé_1090" data-name="Tracé 1090"><path d="M352.78729,453.58925c-1.32252,0-2.645-.04809-3.97957-.14427l-149.45639.04809a59.3474,59.3474,0,0,1-57.85409-57.277l-.012-195.09523A56.31651,56.31651,0,0,1,158.173,161.241L260.74014,33.30553a18.48975,18.48975,0,0,1,13.39348-6.88911,19.26213,19.26213,0,0,1,14.06677,5.38625l21.028,21.028a45.93267,45.93267,0,0,1,13.6099,33.49574,18.64885,18.64885,0,0,1-.36069,3.27022L307.7015,163.54936H408.54939a57.56947,57.56947,0,0,1,40.5171,16.8681c10.67631,9.57021,17.27687,24.29823,17.349,39.69954v39.48313a59.5564,59.5564,0,0,1-4.00362,21.29251l-59.68156,137.71C395.98549,439.11371,375.59469,453.58925,352.78729,453.58925Zm-2.621-37.03046c8.50018.2645,15.72592-3.96755,18.09443-11.10914L428.24287,266.898a22.51041,22.51041,0,0,0,1.23835-7.382V220.24925A17.80785,17.80785,0,0,0,423.59,207.14431c-4.48509-4.49655-9.66639-6.66067-14.95646-6.66067H285.18265a18.45871,18.45871,0,0,1-18.10645-22.086L285.84391,84.4268a8.92084,8.92084,0,0,0-2.59694-5.35018l-6.58854-6.58853-90.412,112.77459a17.70858,17.70858,0,0,1-1.76736,1.91163,19.28132,19.28132,0,0,0-6.05953,13.97059V395.639c.36069,11.13319,9.79864,20.58317,21.48488,20.91981ZM97.07271,453.39688H18.46714A18.4719,18.4719,0,0,1,0,434.92974V201.02467a18.4719,18.4719,0,0,1,18.46714-18.46714H97.07271a18.4719,18.4719,0,0,1,18.46714,18.46714V434.92974A18.4719,18.4719,0,0,1,97.07271,453.39688ZM36.93428,416.46261H78.60557V219.49181H36.93428Z"/></g></g></svg>

<svg id="ds44-icons" xmlns="http://www.w3.org/2000/svg" viewBox="0 0 466.42 480"><title>like</title><g id="like"><g id="Tracé_1090" data-name="Tracé 1090"><path d="M352.79,453.59c-1.33,0-2.65,0-4-.15l-149.46.05a59.33,59.33,0,0,1-57.85-57.27V201.12a56.31,56.31,0,0,1,16.68-39.88L260.74,33.31a18.45,18.45,0,0,1,13.39-6.89A19.27,19.27,0,0,1,288.2,31.8l21,21a45.93,45.93,0,0,1,13.61,33.5,20.07,20.07,0,0,1-.36,3.27l-14.78,74H408.55a57.61,57.61,0,0,1,40.52,16.87c10.67,9.57,17.27,24.3,17.35,39.7V259.6a59.65,59.65,0,0,1-4,21.29L402.73,418.6C396,439.11,375.59,453.59,352.79,453.59Zm-2.62-37c8.5.26,15.72-4,18.09-11.11l60-138.55a22.45,22.45,0,0,0,1.24-7.38V220.25a17.78,17.78,0,0,0-5.89-13.11c-4.49-4.49-9.67-6.66-15-6.66H285.18a18.45,18.45,0,0,1-18.1-22.08l18.76-94a8.89,8.89,0,0,0-2.59-5.35l-6.59-6.59L186.25,185.26a16,16,0,0,1-1.77,1.91,19.28,19.28,0,0,0-6.06,14v194.5c.36,11.13,9.8,20.58,21.48,20.92ZM97.07,453.4H18.47A18.47,18.47,0,0,1,0,434.93V201a18.47,18.47,0,0,1,18.47-18.46h78.6A18.47,18.47,0,0,1,115.54,201V434.93A18.47,18.47,0,0,1,97.07,453.4ZM36.93,416.46H78.61v-197H36.93Z"/></g></g></svg>
